images/adapt-title-left.svg

<svg width="941" height="173" viewBox="0 0 941 175" fill="none" xmlns="http://www.w3.org/2000/svg">
<path fill-rule="evenodd" clip-rule="evenodd" d="M136.66 142.771H55.99L43.2375 172.428H1L76.2675 0H118.789L193.814 172.428H149.412L136.66 142.771ZM71.0971 107.534H121.553L96.3248 48.7825L71.0971 107.534ZM214.207 172.428V0.241108H285.448C342.864 0.241108 379.546 32.0623 379.546 86.3343C379.546 139.825 342.353 172.428 285.448 172.428H214.207ZM256.111 36.4428V136.226H284.726C316.621 136.226 336.921 117.276 336.921 86.3343C336.921 54.6193 317.103 36.4428 284.726 36.4428H256.111ZM513.839 142.771H433.169L420.416 172.428H378.179L453.446 0H495.968L570.993 172.428H526.591L513.839 142.771ZM448.276 107.534H498.732L473.504 48.7825L448.276 107.534ZM633.049 112.151V172.428H591.386V0.241108H691.741C731.182 0.241108 753.597 20.1282 753.597 55.9548C753.597 91.7375 730.955 112.151 691.741 112.151H633.049ZM633.049 36.925V75.4667H687.891C702.861 75.4667 710.731 68.5585 710.731 56.1959C710.731 43.236 703.277 36.925 687.891 36.925H633.049ZM875.348 36.925V172.428H833.685V36.925H768.959V0.241108H940.073V36.925H875.348Z" stroke="#14C5C4"/>
</svg>

<svg width="941" height="173" viewBox="0 0 941 175" fill="none" xmlns="http://www.w3.org/2000/svg"><path clip-rule="evenodd" d="M136.66 142.771H55.99l-12.753 29.657H1L76.267 0h42.522l75.025 172.428h-44.402l-12.752-29.657zm-65.563-35.237h50.456L96.325 48.782l-25.228 58.752zm143.11 64.894V.241h71.241c57.416 0 94.098 31.821 94.098 86.093 0 53.491-37.193 86.094-94.098 86.094h-71.241zm41.904-135.985v99.783h28.615c31.895 0 52.195-18.95 52.195-49.892 0-31.715-19.818-49.891-52.195-49.891h-28.615zM513.839 142.77h-80.67l-12.753 29.657h-42.237L453.446 0h42.522l75.025 172.428h-44.402l-12.752-29.657zm-65.563-35.237h50.456l-25.228-58.752-25.228 58.752zm184.773 4.617v60.277h-41.663V.241h100.355c39.441 0 61.856 19.887 61.856 55.714 0 35.782-22.642 56.196-61.856 56.196h-58.692zm0-75.226v38.542h54.842c14.97 0 22.84-6.909 22.84-19.271 0-12.96-7.454-19.271-22.84-19.271h-54.842zm242.299 0v135.503h-41.663V36.925h-64.726V.241h171.114v36.684h-64.725z" stroke="#14C5C4"/></svg>
